X: 30
T: Kezi le bi dai
L: 1/8
M: 4/8
K: G
G G c [I:setbarnb 1]| 
c3- | 
c3 | 
B3- | 
B3 | 
c d e | 
g3- | 
g2g | 
e d e | 
B3 | 
B A B | 
d3 | 
e d B | 
A3 | 
A2(3B/ A/ G/ | 
G3- | 
G3- | 
G3- | 
G3 | 
d2e | 
f3- | 
fd2 | 
d e f | 
g3- | 
g3 | 
f3- | 
f3 | 
e f g | 
fe2d- | 
[M:3/8]d3- | 
d3- | 
d3- | 
d3 | 
e2f | 
a3- | 
a3- | 
a3- | 
a2b/ a/ | 
g3 | 
f3 | 
g f g | 
a3- | 
a3- | 
a3 | 
e f e | 
d3- | 
d3 | 
c3- | 
c B A | 
B3- | 
B2G | 
A3- | 
A3 | 
G3- | 
G3- | 
G3- | 
G3 | 
c c d | 
eg2 | 
d d c | 
B d B | 
A3 | 
D D G | 
G3 | 
B A B | 
e d B | 
A3 | 
D E F | 
GA2 | 
AG2- | 
G3- | 
G3- | 
G3 | 
d e f | 
d2z | 
e f g/ f/ | 
e2z | 
e2f | 
a3- | 
a3- | 
a3 | 
fg2 | 
f3 | 
g f g | 
a2f | 
e f e | 
d3- | 
d2B | 
c3- | 
c B A | 
B3- | 
B2G | 
A3- | 
A3 | 
G3- | 
G3- | 
G3- | 
G3 | 
c c d | 
eg2 | 
d d c | 
B d B | 
A3 | 
D D G | 
G3 | 
B A B | 
e d B | 
A3 | 
D E F | 
GA2 | 
AG2- | 
G3- | 
G3- | 
G3- | 
G3 |]

@@@ Tune index: 8698
